brandFactory_export/1.Light/Pausa_1Light.svg

<?xml version="1.0" encoding="UTF-8"?>
<svg width="24px" height="24px" viewBox="0 0 24 24" version="1.1" xmlns="http://www.w3.org/2000/svg" xmlns:xlink="http://www.w3.org/1999/xlink">
    <title>1.Light/Pausa_1Light</title>
    <g id="Symbols" stroke="none" stroke-width="1" fill="none" fill-rule="evenodd">
        <g id="1.Light/Pausa_1Light" fill="#5CB615" fill-rule="nonzero">
            <path d="M11.8285714,0.0268907563 C15.5966387,0.0268907563 18.5176471,1.00168067 20.5142857,2.92773109 C22.5848739,4.92436975 23.6369769,7.92268908 23.6369769,11.8352941 C23.6403361,19.5563025 19.5563025,23.6403361 11.8285714,23.6403361 C4.10756303,23.6403361 0.0235294118,19.5596639 0.0235294118,11.8352941 C0.0235294118,4.11092437 4.10420168,0.0268907563 11.8285714,0.0268907563 Z M11.8285714,0.699159664 C4.44369748,0.699159664 0.695798319,4.44705882 0.695798319,11.8352941 C0.695798319,19.2201681 4.44033613,22.9680672 11.8285714,22.9680672 C19.2201681,22.9680672 22.9647081,19.2235294 22.9647081,11.8352941 C22.9680672,4.44369748 19.2201681,0.699159664 11.8285714,0.699159664 Z M8.17478992,6.50420168 C8.35966387,6.50420168 8.51092437,6.65546218 8.51092437,6.84033613 L8.51092437,16.8403361 C8.51092437,17.0252101 8.35966387,17.1764706 8.17478992,17.1764706 C7.98991597,17.1764706 7.83865546,17.0252101 7.83865546,16.8403361 L7.83865546,6.84033613 C7.83865546,6.65546218 7.98991597,6.50420168 8.17478992,6.50420168 Z M15.4285714,6.47058824 C15.6134454,6.47058824 15.7647059,6.62184874 15.7647059,6.80672269 L15.7647059,16.8067227 C15.7647059,16.9915966 15.6134454,17.1428571 15.4285714,17.1428571 C15.2436975,17.1428571 15.092437,16.9915966 15.092437,16.8067227 L15.092437,6.80672269 C15.092437,6.62184874 15.2436975,6.47058824 15.4285714,6.47058824 Z" id="Pausa_1Light"></path>
        </g>
    </g>
</svg>

<svg width="24" height="24" viewBox="0 0 24 24" xmlns="http://www.w3.org/2000/svg"><path d="M11.829.027c3.768 0 6.689.975 8.685 2.9 2.07 1.997 3.123 4.996 3.123 8.908.003 7.721-4.08 11.805-11.808 11.805C4.108 23.64.024 19.56.024 11.835.024 4.111 4.104.027 11.829.027zm0 .672C4.444.7.696 4.447.696 11.835c0 7.385 3.744 11.133 11.133 11.133 7.391 0 11.136-3.744 11.136-11.133C22.968 4.444 19.22.7 11.829.7zM8.175 6.504c.185 0 .336.151.336.336v10a.337.337 0 01-.336.336.337.337 0 01-.336-.336v-10c0-.185.15-.336.336-.336zm7.254-.033c.184 0 .336.15.336.336v10a.337.337 0 01-.336.336.337.337 0 01-.337-.336v-10c0-.185.152-.336.337-.336z" fill="#5CB615" fill-rule="nonzero"/></svg>
